src/ui/key-fill.svg

<?xml version="1.0" encoding="UTF-8"?><svg xmlns="http://www.w3.org/2000/svg" viewBox="0 0 32 32"><defs><style>.uuid-ed77904d-24de-453b-9cee-b0b490051cd7{fill:none;}.uuid-ed77904d-24de-453b-9cee-b0b490051cd7,.uuid-6cc6c7fe-3b20-42c3-a851-0183712a5a54{stroke-width:0px;}.uuid-6cc6c7fe-3b20-42c3-a851-0183712a5a54{fill:#151515;}</style></defs><g id="uuid-1efe0c11-9e41-4c6c-bdc8-1f248a1b6b03"><rect class="uuid-ed77904d-24de-453b-9cee-b0b490051cd7" width="32" height="32"/></g><g id="uuid-72b6b2b7-244e-4d0c-a522-bbb170941da1"><path class="uuid-6cc6c7fe-3b20-42c3-a851-0183712a5a54" d="M30.707,5.293l-2.6465-2.6465c-.584-.5859-1.5371-.5859-2.1211,0l-14.7552,14.7552c-1.1689-.876-2.6146-1.4017-4.1842-1.4017-3.8594,0-7,3.1406-7,7s3.1406,7,7,7,7-3.1406,7-7c0-1.5696-.5258-3.0153-1.4017-4.1842l6.4017-6.4017,2.293,2.293c.1953.1953.4512.293.707.293s.5117-.0977.707-.293c.3906-.3906.3906-1.0234,0-1.4141l-2.293-2.293,2.5859-2.5859,4.293,4.293c.1953.1953.4512.293.707.293s.5117-.0977.707-.293c.3906-.3906.3906-1.0234,0-1.4141l-4.293-4.293,2.5859-2.5859,2.293,2.293c.3906.3906,1.0234.3906,1.4141,0s.3906-1.0234,0-1.4141Z"/></g></svg>

<svg xmlns="http://www.w3.org/2000/svg" viewBox="0 0 32 32">
  <path d="M0 0h32v32H0z" fill="none"/>
  <path d="M30.707 5.293 28.06 2.646a1.5 1.5 0 0 0-2.12 0L11.183 17.402A6.954 6.954 0 0 0 7 16c-3.86 0-7 3.14-7 7s3.14 7 7 7 7-3.14 7-7c0-1.57-.526-3.015-1.402-4.184L19 12.414l2.293 2.293a.997.997 0 0 0 1.414 0 1 1 0 0 0 0-1.414L20.414 11 23 8.414l4.293 4.293a.997.997 0 0 0 1.414 0 1 1 0 0 0 0-1.414L24.414 7 27 4.414l2.293 2.293a1 1 0 1 0 1.414-1.414Z" fill="#151515"/>
</svg>
